Sources/FrostedUI/Resources/Icons.xcassets/linkAdd32.imageset/link-add-32.svg

<svg width="32" height="32" viewBox="0 0 32 32" fill="none" xmlns="http://www.w3.org/2000/svg" data-fui-icon="true">
  <path
    d="M24.5 20C24.9142 20 25.25 20.3358 25.25 20.75V23.75H28.25C28.6642 23.75 29 24.0858 29 24.5C29 24.9142 28.6642 25.25 28.25 25.25H25.25V28.25C25.25 28.6642 24.9142 29 24.5 29C24.0858 29 23.75 28.6642 23.75 28.25V25.25H20.75C20.3358 25.25 20 24.9142 20 24.5C20 24.0858 20.3358 23.75 20.75 23.75H23.75V20.75C23.75 20.3358 24.0858 20 24.5 20ZM7.75098 12.4385C8.04387 12.1456 8.51863 12.1456 8.81152 12.4385C9.10442 12.7314 9.10442 13.2061 8.81152 13.499L5.09277 17.2178C4.07318 18.2374 3.50008 19.6206 3.5 21.0625C3.5 24.0654 5.93463 26.5 8.9375 26.5C10.3794 26.4999 11.7626 25.9268 12.7822 24.9072L16.501 21.1885C16.7939 20.8956 17.2686 20.8956 17.5615 21.1885C17.8544 21.4814 17.8544 21.9561 17.5615 22.249L13.8428 25.9678C12.5419 27.2687 10.7772 27.9999 8.9375 28C5.1062 28 2 24.8938 2 21.0625C2.00008 19.2228 2.73133 17.4581 4.03223 16.1572L7.75098 12.4385ZM19.7197 9.21973C20.0126 8.92683 20.4874 8.92683 20.7803 9.21973C21.0732 9.51262 21.0732 9.98738 20.7803 10.2803L10.2803 20.7803C9.98738 21.0732 9.51262 21.0732 9.21973 20.7803C8.92683 20.4874 8.92683 20.0126 9.21973 19.7197L19.7197 9.21973ZM21.0625 2C24.8938 2 28 5.1062 28 8.9375C27.9999 10.7772 27.2687 12.5419 25.9678 13.8428L22.249 17.5615C21.9561 17.8544 21.4814 17.8544 21.1885 17.5615C20.8956 17.2686 20.8956 16.7939 21.1885 16.501L24.9072 12.7822C25.9268 11.7626 26.4999 10.3794 26.5 8.9375C26.5 5.93463 24.0654 3.5 21.0625 3.5C19.6206 3.50008 18.2374 4.07318 17.2178 5.09277L13.499 8.81152C13.2061 9.10442 12.7314 9.10442 12.4385 8.81152C12.1456 8.51863 12.1456 8.04387 12.4385 7.75098L16.1572 4.03223C17.4581 2.73133 19.2228 2.00008 21.0625 2Z"
    fill="currentColor"
  />
</svg>

<svg xmlns="http://www.w3.org/2000/svg" width="32" height="32" fill="none" data-fui-icon="true" viewBox="0 0 32 32"><path fill="currentColor" d="M24.5 20a.75.75 0 0 1 .75.75v3h3a.75.75 0 0 1 0 1.5h-3v3a.75.75 0 0 1-1.5 0v-3h-3a.75.75 0 0 1 0-1.5h3v-3a.75.75 0 0 1 .75-.75M7.751 12.438a.75.75 0 1 1 1.06 1.061l-3.718 3.719a5.438 5.438 0 0 0 7.69 7.69l3.718-3.72a.75.75 0 1 1 1.06 1.061l-3.718 3.719a6.938 6.938 0 1 1-9.81-9.81zM19.72 9.22a.75.75 0 1 1 1.06 1.06l-10.5 10.5a.75.75 0 1 1-1.06-1.06zM21.063 2a6.938 6.938 0 0 1 4.905 11.843l-3.719 3.718a.75.75 0 1 1-1.06-1.06l3.718-3.719a5.438 5.438 0 0 0-7.69-7.69L13.5 8.813a.75.75 0 1 1-1.06-1.061l3.718-3.719A6.94 6.94 0 0 1 21.063 2"/></svg>
